!!!OTL: EIN SCHAEFERMAEDCHEN SASS IM GRUENEN
!!!ARE: Europa, Mitteleuropa, Deutschland, Rheinland
!!!SCT: B0146
!!!YEM: Copyright 1995, estate of Helmut Schaffrath.
**kern
*ICvox
*Ivox
*M4/4
*k[f#c#]
*D:
{4d
=1
4.f#
8f#
8f#
8f#
8e
8f#
=2
4a
4g
4r}
{8e
8f#
=3
4.g
8g
8g
8g
8f#
8g
=4
4b
4a
4r}
{8d
8f#
=5
4.a
8a
8a
8a
8g
8a
=6
2b
4r}
{4dd
=7
4.cc#
8b
8a
8a
8g
8a
=8
2f#
4r}
==
!!!AGN: Ballade, Romanze
!!!ONB: ESAC (Essen Associative Code) Database: BOEHME
!!!AMT: simple quadruple
!!!AIN: vox
!!!EED: Helmut Schaffrath
!!!EEV: 1.0
*-
